X: 18602
T: I Was Born For Sport
R: jig
M: 6/8
K: Gmajor
Bc|:dgg fdd|cAB cBc|dgg fdd|cAF GBc|
dgg fdd|cAB cBA|B/c/de {g}fed|1 cAF GBc:|2 cAF GAB||
c2A d2A|dfe dAB|cBA d/e/dB|cAF GAB|
cBA d2A|dfe dAB|cde {g}fed|1 cAF GAB:|2 cAF GBc||
d2g fdd|cAB cBc|Bdg fdd|cAF GBc|
dgg fdd|cAB cBA|B/c/de {g}fed|cAF GBc|
dga f2d|cAB cBc|dgg fdd|cAd GBc|
dga fdd|cAB cBA|B/c/de {g}fed|cAF dcB||
cAA d3|dfe dAB|cBA d/e/dB|cAF GAB|
cBA d2A|dfe dAB|cde {g}fed|cAF GAB|
cAA dAA|dfe dAB|cAA dAA|{c}BAF GAB|
cBA d3|dfe dAB|cag .fzd|cAF. Gz2||

